src/assets/img/jackpots/jackpot_bg.svg

<svg width="426" height="96" viewBox="0 0 426 96" fill="none" xmlns="http://www.w3.org/2000/svg">
<g style="mix-blend-mode:overlay" opacity="0.2">
<path fill-rule="evenodd" clip-rule="evenodd" d="M73.3279 -68L213 47.9279L0 -68H73.3279ZM213 47.9279L233.951 -68H192.049L213 47.9279ZM213 47.9279L314.262 -68H268.869L213 47.9279ZM213 47.9279L426 -68H352.672L213 47.9279ZM213 47.9279L426 -2.35411V-36.2246L213 47.9279ZM213 47.9279L426 42.341V17.5492L213 47.9279ZM213 47.9279L426 98.2098V132.08L213 47.9279ZM213 47.9279L426 53.5148V78.3066L213 47.9279ZM213 47.9279L352.672 163.856H426L213 47.9279ZM213 47.9279L268.869 163.856H314.262L213 47.9279ZM213 47.9279L192.049 162.459H233.951L213 47.9279ZM213 47.9279L111.738 163.856H157.131L213 47.9279ZM213 47.9279L0 -36.2246V-2.35411L213 47.9279ZM213 47.9279L73.3279 163.856H0L213 47.9279ZM213 47.9279L0 98.2098V132.08L213 47.9279ZM213 47.9279L0 53.5148V78.3066L213 47.9279ZM213 47.9279L0 17.5492V42.341L213 47.9279ZM157.131 -68L213 47.9279L111.738 -68H157.131Z" fill="white"/>
</g>
</svg>

<svg width="426" height="96" fill="none" xmlns="http://www.w3.org/2000/svg"><path fill-rule="evenodd" clip-rule="evenodd" d="M73.328-68 213 47.928 0-68h73.328ZM213 47.928 233.951-68h-41.902L213 47.928Zm0 0L314.262-68h-45.393L213 47.928Zm0 0L426-68h-73.328L213 47.928Zm0 0L426-2.354v-33.87L213 47.927Zm0 0 213-5.587V17.549L213 47.928Zm0 0L426 98.21v33.87L213 47.928Zm0 0 213 5.587v24.792l-213-30.38Zm0 0 139.672 115.928H426L213 47.928Zm0 0 55.869 115.928h45.393L213 47.928Zm0 0-20.951 114.531h41.902L213 47.928Zm0 0L111.738 163.856h45.393L213 47.928Zm0 0L0-36.225v33.87l213 50.283Zm0 0L73.328 163.856H0L213 47.928Zm0 0L0 98.21v33.87l213-84.152Zm0 0L0 53.515v24.792l213-30.38Zm0 0L0 17.549v24.792l213 5.587ZM157.131-68 213 47.928 111.738-68h45.393Z" fill="#fff" style="mix-blend-mode:overlay" opacity=".2"/></svg>
